X:22
T:Somerset Wassail
C:traditional English
M:C
L:1/4
K:Eb
%
E | (E c) B A | G2 (F E) | (E F) G A |
w: 1.~Was- sail_ and was- sail all_ o_ ver the
%
B3 E | (E c) B A | G2 F E | (E F) G A |
w:  town. The cup_ it is white and the ale_ it is
%
B3 G | (c A) _d c | B2 G G | (A G) F G |
w: brown; The cup_ it is made of the good_ ash- en
%
A2 (G A) | (B e) c A | B2 A G | (F E) (G F) |
w: tree, And_ so_ is the malt of the best_ bar_
%
E2 || "Chorus" B, B, | E2 F2 | B,2 B, B, | E2 (F G) | A2 G A |
w:  ley. For its your was- sail and its our was_ sail, And it's
%
(B e) c A | B2 A G | F E (G F) E2 z |]
w: joy_ be to you, and a jol- ly was_ sail.
%
%%newpage
%
W: 1. Wassail and wassail all over the town.
W:    The cup it is white and the ale it is brown;
W:    The cup it is made of the good ashen tree,
W:    And so is the malt of the best barley.
W:    For its your wassail and its our wassail,
W:    And its joy be to you, and a jolly wassail.
W:
W: 2. O master and missus, are you all within?
W:    Pray open the door and let us come in.
W:    O master and missus a-sitting by the fire,
W:    Pray think on us poor travelers, a traveling in the mire.
W:    For its your wassail and its our wassail,
W:    And its joy be to you, and a jolly wassail.
W:
W: 3. O where is the maid with the silver-headed pin,
W:    To open the door and let us come in?
W:    O master and missus, it is our desire:
W:    A good loaf and cheese, and a toast by the fire.
W:    For its your wassail and its our wassail,
W:    And its joy be to you, and a jolly wassail.
W:
W: 4. There was an old man, and he had an old cow,
W:    And how for to keep her he didn't know how;
W:    He built up a barn for to keep his cow warm.
W:    And a drop or two of cider will do us no harm.
W:    No harm, boys, harm; no harm, boys, harm;
W:    And a drop or two of cider will do us no harm.
W:
W: 5. The girt dog of Langport he burnt his long tail,
W:    And this is the night we go singing wassail.
W:    O master and missus now we must be gone;
W:    God bless all in this house until we do come again.
W:    For its your wassail and its our wassail,
W:    And its joy be to you, and a jolly wassail.

%%newpage

